webroot/assets/sticky-card/sticky-card-style.svg

<svg xmlns="http://www.w3.org/2000/svg" width="449" height="361"><defs><filter id="a" width="274" height="361" x="97" y="0" filterUnits="userSpaceOnUse"><feOffset dy="3"/><feGaussianBlur result="b" stdDeviation="2"/><feFlood flood-opacity=".102"/><feComposite in2="b" operator="in"/><feComposite in="SourceGraphic"/></filter></defs><g transform="translate(-627 -863)"><g filter="url(#a)" transform="translate(627 863)"><g fill="#fff" stroke="#d2d2d2"><path stroke="none" d="M106 3h259v349H106a3 3 0 01-3-3V6a3 3 0 013-3z"/><path fill="none" d="M106 3.5h258a.5.5 0 01.5.5v347a.5.5 0 01-.5.5H106a2.5 2.5 0 01-2.5-2.5V6a2.5 2.5 0 012.5-2.5z"/></g></g><g fill="#8a8d90"><path d="M900 1173l-1.5 1.5 4.5 4.5h-10v2h10l-4.5 4.5 1.5 1.5 7-7z"/><text font-family="RedHatDisplay-Bold, Red Hat Display" font-size="18" font-weight="700" transform="translate(754 1186)"><tspan x="0" y="0">Get the e-book</tspan></text></g><text fill="#8a8d90" font-family="RedHatText-Regular, Red Hat Text" font-size="16" transform="translate(754 1059)"><tspan x="0" y="16">This book shows you how </tspan><tspan x="0" y="40">Operators work and how to </tspan><tspan x="0" y="64">build them with the Operator </tspan><tspan x="0" y="88">Framework and SDK.</tspan></text><text fill="#8a8d90" font-family="RedHatDisplay-Medium, Red Hat Display" font-size="20" font-weight="500" transform="translate(754 965)"><tspan x="0" y="20">Automating the </tspan><tspan x="0" y="46">container orchestration </tspan><tspan x="0" y="72">platform</tspan></text><text fill="#8a8d90" font-family="RedHatText-Regular, Red Hat Text" font-size="16" transform="translate(754 944)"><tspan x="0" y="0">E-BOOK</tspan></text><path fill="none" d="M754 890h14v14h-14z"/><path fill="#8a8d90" d="M762.9 897l2.84-2.84a.9.9 0 000-1.27l-.63-.63a.9.9 0 00-1.26 0L761 895.1l-2.84-2.84a.9.9 0 00-1.27 0l-.63.63a.9.9 0 000 1.27l2.84 2.84-2.84 2.84a.9.9 0 000 1.27l.63.63a.9.9 0 001.27 0l2.84-2.84 2.84 2.84a.9.9 0 001.27 0l.63-.63a.9.9 0 000-1.26z"/><path fill="#fff" d="M991 866h10v349h-10z"/><text fill="#06c" font-family="RedHatText-Regular, Red Hat Text" font-size="14" transform="translate(1011 1206)"><tspan x="0" y="0">Card edge</tspan></text><path fill="#06c" d="M978 1201h29v1h-29z"/><circle cx="3.5" cy="3.5" r="3.5" fill="#06c" transform="translate(974 1198)"/><circle cx="3.5" cy="3.5" r="3.5" fill="#06c" transform="translate(827 1176)"/><path fill="#06c" d="M713 1179h117v1H713z"/><text fill="#06c" font-family="RedHatText-Regular, Red Hat Text" font-size="14" transform="translate(627 1184)"><tspan x="0" y="0">Call to action</tspan></text><circle cx="3.5" cy="3.5" r="3.5" fill="#06c" transform="translate(858 1102)"/><path fill="#06c" d="M713 1105h148v1H713z"/><text fill="#06c" font-family="RedHatText-Regular, Red Hat Text" font-size="14" transform="translate(651 1110)"><tspan x="0" y="0">Card text</tspan></text><circle cx="3.5" cy="3.5" r="3.5" fill="#06c" transform="translate(858 1001)"/><path fill="#06c" d="M713 1004h148v1H713z"/><text fill="#06c" font-family="RedHatText-Regular, Red Hat Text" font-size="14" transform="translate(651 1009)"><tspan x="0" y="0">Card title</tspan></text><circle cx="3.5" cy="3.5" r="3.5" fill="#06c" transform="translate(782 935)"/><path fill="#06c" d="M713 938h72v1h-72z"/><text fill="#06c" font-family="RedHatText-Regular, Red Hat Text" font-size="14" transform="translate(642 943)"><tspan x="0" y="0">Asset type</tspan></text><circle cx="3.5" cy="3.5" r="3.5" fill="#06c" transform="translate(743 894)"/><path fill="#06c" d="M713 897h33v1h-33z"/><text fill="#06c" font-family="RedHatText-Regular, Red Hat Text" font-size="14" transform="translate(673 902)"><tspan x="0" y="0">Close</tspan></text></g></svg>

<svg xmlns="http://www.w3.org/2000/svg" width="449" height="349" viewBox="0 0 449 349"><defs><style>.a{fill:#fff;}.b,.g{fill:none;}.b{stroke:#d2d2d2;}.c,.d,.e,.f{fill:#8a8d90;}.d{font-size:18px;font-family:RedHatDisplay-Bold, Red Hat Display;font-weight:700;}.e{font-size:16px;}.e,.h{font-family:RedHatText-Regular, Red Hat Text;}.f{font-size:20px;font-family:RedHatDisplay-Medium, Red Hat Display;font-weight:500;}.h,.i{fill:#06c;}.h{font-size:14px;}</style></defs><g transform="translate(-627 -866)"><g transform="translate(627 863)"><path class="a" d="M106,3H365V352H106"/><path class="b" d="M106,3.5H364"/></g><path class="c" d="M900,1173l-1.5,1.5,4.5,4.5H893v2h10l-4.5,4.5,1.5,1.5,7-7Z"/><text class="d" transform="translate(754 1186)"><tspan x="0" y="0">Get the e-book</tspan></text><text class="e" transform="translate(754 1075)"><tspan x="0" y="0">This book shows you how </tspan><tspan x="0" y="24">Operators work and how to </tspan><tspan x="0" y="48">build them with the Operator </tspan><tspan x="0" y="72">Framework and SDK.</tspan></text><text class="f" transform="translate(754 985)"><tspan x="0" y="0">Automating the </tspan><tspan x="0" y="26">container orchestration </tspan><tspan x="0" y="52">platform</tspan></text><text class="e" transform="translate(754 944)"><tspan x="0" y="0">E-BOOK</tspan></text><path class="g" d="M754,890h14v14H754Z"/><path class="c" d="M762.9,897l2.84-2.84"/><path class="a" d="M991,866h10v349H991Z"/><text class="h" transform="translate(1011 1206)"><tspan x="0" y="0">Card edge</tspan></text><path class="i" d="M978,1201h29v1H978Z"/><circle class="i" cx="3.5" cy="3.5" r="3.5" transform="translate(974 1198)"/><circle class="i" cx="3.5" cy="3.5" r="3.5" transform="translate(827 1176)"/><path class="i" d="M713,1179H830v1H713Z"/><text class="h" transform="translate(627 1184)"><tspan x="0" y="0">Call to action</tspan></text><circle class="i" cx="3.5" cy="3.5" r="3.5" transform="translate(858 1102)"/><path class="i" d="M713,1105H861v1H713Z"/><text class="h" transform="translate(651 1110)"><tspan x="0" y="0">Card text</tspan></text><circle class="i" cx="3.5" cy="3.5" r="3.5" transform="translate(858 1001)"/><path class="i" d="M713,1004H861v1H713Z"/><text class="h" transform="translate(651 1009)"><tspan x="0" y="0">Card title</tspan></text><circle class="i" cx="3.5" cy="3.5" r="3.5" transform="translate(782 935)"/><path class="i" d="M713,938h72v1H713Z"/><text class="h" transform="translate(642 943)"><tspan x="0" y="0">Asset type</tspan></text><circle class="i" cx="3.5" cy="3.5" r="3.5" transform="translate(743 894)"/><path class="i" d="M713,897h33v1H713Z"/><text class="h" transform="translate(673 902)"><tspan x="0" y="0">Close</tspan></text></g></svg>
